static/img/kroki/fbe3bba17cada871e3823805cf164e9f.svg

<?xml version="1.0" encoding="us-ascii" standalone="no"?><svg xmlns="http://www.w3.org/2000/svg" xmlns:xlink="http://www.w3.org/1999/xlink" contentStyleType="text/css" height="152px" preserveAspectRatio="none" style="width:295px;height:152px;" version="1.1" viewBox="0 0 295 152" width="295px" zoomAndPan="magnify"><defs/><g><!--class gcp_public_advertised_prefix--><g id="elem_gcp_public_advertised_prefix"><rect codeLine="22" fill="#3D176E" height="39.7891" id="gcp_public_advertised_prefix" rx="2.5" ry="2.5" style="stroke:#000D19;stroke-width:0.5;" width="281" x="7" y="106.79"/><ellipse cx="22" cy="126.6845" fill="#ADD1B2" rx="11" ry="11" style="stroke:#181818;stroke-width:1.0;"/><path d="M24.9688,132.3252 Q24.3906,132.622 23.75,132.7627 Q23.1094,132.9189 22.4063,132.9189 Q19.9063,132.9189 18.5781,131.2783 Q17.2656,129.622 17.2656,126.497 Q17.2656,123.372 18.5781,121.7158 Q19.9063,120.0595 22.4063,120.0595 Q23.1094,120.0595 23.75,120.2158 Q24.4063,120.372 24.9688,120.6689 L24.9688,123.3877 Q24.3438,122.8095 23.75,122.5439 Q23.1563,122.2627 22.5313,122.2627 Q21.1875,122.2627 20.5,123.3408 Q19.8125,124.4033 19.8125,126.497 Q19.8125,128.5908 20.5,129.6689 Q21.1875,130.7314 22.5313,130.7314 Q23.1563,130.7314 23.75,130.4658 Q24.3438,130.1845 24.9688,129.6064 L24.9688,132.3252 Z " fill="#000000"/><text fill="#D9B8FF" font-family="Helvetica" font-size="17" lengthAdjust="spacing" textLength="239" x="41" y="132.5698">gcp_public_advertised_prefix</text></g><!--class gcp_public_delegated_prefix--><g id="elem_gcp_public_delegated_prefix"><rect codeLine="24" fill="#3D176E" height="39.7891" id="gcp_public_delegated_prefix" rx="2.5" ry="2.5" style="stroke:#000D19;stroke-width:0.5;" width="276" x="9.5" y="7"/><ellipse cx="24.5" cy="26.8945" fill="#ADD1B2" rx="11" ry="11" style="stroke:#181818;stroke-width:1.0;"/><path d="M27.4688,32.5352 Q26.8906,32.832 26.25,32.9727 Q25.6094,33.1289 24.9063,33.1289 Q22.4063,33.1289 21.0781,31.4883 Q19.7656,29.832 19.7656,26.707 Q19.7656,23.582 21.0781,21.9258 Q22.4063,20.2695 24.9063,20.2695 Q25.6094,20.2695 26.25,20.4258 Q26.9063,20.582 27.4688,20.8789 L27.4688,23.5977 Q26.8438,23.0195 26.25,22.7539 Q25.6563,22.4727 25.0313,22.4727 Q23.6875,22.4727 23,23.5508 Q22.3125,24.6133 22.3125,26.707 Q22.3125,28.8008 23,29.8789 Q23.6875,30.9414 25.0313,30.9414 Q25.6563,30.9414 26.25,30.6758 Q26.8438,30.3945 27.4688,29.8164 L27.4688,32.5352 Z " fill="#000000"/><text fill="#D9B8FF" font-family="Helvetica" font-size="17" lengthAdjust="spacing" textLength="234" x="43.5" y="32.7798">gcp_public_delegated_prefix</text></g><!--link gcp_public_delegated_prefix to gcp_public_advertised_prefix--><g id="link_gcp_public_delegated_prefix_gcp_public_advertised_prefix"><path codeLine="26" d="M147.5,47.22 C147.5,64.36 147.5,83.27 147.5,100.41 " fill="none" id="gcp_public_delegated_prefix-to-gcp_public_advertised_prefix" style="stroke:#1A83AF;stroke-width:2.0;"/><polygon fill="#1A83AF" points="147.5,106.41,151.5,97.41,147.5,101.41,143.5,97.41,147.5,106.41" style="stroke:#1A83AF;stroke-width:2.0;"/></g><!--SRC=[XT31Ji9040RWEq-n2MUILgB0nQII4BqG8zwCQQQTsRAXtMrc1n2Dxww8cgM5Sjt_oyu_ipH8YgfQTggYAYFsFRyojWQ6IYNCRZjrfMFLrnhqSDGCPyxAHJ27YjGzbHiIaqDJF2zDlhBalReAeZl8LmMxjSN3zy9W_NT4LW8rBS7xH8HDjXOAok0a6slTbCrF-qECHpVKOewH-9T4KOJnf4akZkhS-ryip3kfE3pQt0crQhP6_AZEbdiHb6mj-fUVxVW8YCOMwZfuUpfqOajyzBvO0hhjNcieVJZ62p4vsTKqRMr5ap7gqKdyS0xd-ykf8g_JUfsL9ay1DyHYF65QCsdpfZvwdss6L581Sgowyi5BFqx6msJsEhZjdFS5]--></g></svg>

<svg xmlns="http://www.w3.org/2000/svg" width="295" height="152" viewBox="0 0 295 152"><rect width="281" height="39.789" x="7" y="106.79" fill="#3D176E" rx="2.5" ry="2.5" style="stroke:#000d19;stroke-width:.5"/><circle cx="22" cy="126.684" r="11" fill="#ADD1B2" style="stroke:#181818;stroke-width:1"/><path d="M24.969 132.325q-.578.297-1.219.438-.64.156-1.344.156-2.5 0-3.828-1.64-1.312-1.657-1.312-4.782t1.312-4.781q1.328-1.656 3.828-1.656.703 0 1.344.156.656.156 1.219.453v2.719q-.625-.579-1.219-.844-.594-.281-1.219-.281-1.343 0-2.031 1.078-.687 1.062-.687 3.156t.687 3.172q.688 1.062 2.031 1.062.625 0 1.219-.265.594-.281 1.219-.86z"/><text x="41" y="132.57" fill="#D9B8FF" font-family="Helvetica" font-size="17" textLength="239">gcp_public_advertised_prefix</text><rect width="276" height="39.789" x="9.5" y="7" fill="#3D176E" rx="2.5" ry="2.5" style="stroke:#000d19;stroke-width:.5"/><circle cx="24.5" cy="26.895" r="11" fill="#ADD1B2" style="stroke:#181818;stroke-width:1"/><path d="M27.469 32.535q-.578.297-1.219.438-.64.156-1.344.156-2.5 0-3.828-1.64-1.312-1.657-1.312-4.782t1.312-4.781q1.328-1.656 3.828-1.656.703 0 1.344.156.656.156 1.219.453v2.719q-.625-.578-1.219-.844-.594-.281-1.219-.281-1.343 0-2.031 1.078-.687 1.062-.687 3.156T23 29.879q.688 1.062 2.031 1.062.625 0 1.219-.265.594-.281 1.219-.86z"/><text x="43.5" y="32.78" fill="#D9B8FF" font-family="Helvetica" font-size="17" textLength="234">gcp_public_delegated_prefix</text><path fill="none" d="M147.5 47.22v53.19" style="stroke:#1a83af;stroke-width:2"/><path fill="#1A83AF" d="m147.5 106.41 4-9-4 4-4-4z" style="stroke:#1a83af;stroke-width:2"/></svg>
